X:1
T:Molenmazurka
C:Trad.
O:Vlaanderen
Z:Bart Vanhaverbeke <bvanhaverbeke@unicall.be>
P:(Voorspel ABC) x4
L:1/8
M:3/4
K:D
P:Voorspel
FE FG A2 | BA Bc d2 | A2 B2 c2 | d2 d2 z2 |]
P:A
FE FG A2 | BA Bc d2 | A2 B2 d>e | d2 c2 z2 | ED EF G2 | GF GA B2 | c2 c2 B>c | B2 A2 z2 |
FE FG A2 | BA Bc d2 | d2 c2 d2 | e2 d2 z2 | e3 d cB | d3 c BA |1 c3 B AG | (F2 F) z z2 :|2 c3 B AB/c/ | d2 d z |]
P:B
A2 || dc BA FA | BA GF GB | cB AG FG | BA FA FA |
dc BA FA | BA GF GB | cB AG FE |1 D2 D z A2 :|2 D2 D z z2|]
P:C
F3 F EF | (G2 G) z z2 | E3 E DE | (F2 F) z A2 | d3 c ed | c3 B AB | c3 B AG | (F2 F) z z2 |
F3 F EF | (G2 G) z z2 | E3 E DE | (F2 F) z A2 | d3 c ed | c3 B AB | c3 B AB/c/ | d2 d z z2 :|
